X: 72
T: Missa De virginibus / Agnus Dei
N: Derived from Rue1015e-Missa_De_virginibus-Agnus.krn
C: Pierre de la Rue
%%abc-version 2.0
%%abcx-abcm2ps-target-version 5.9.1 (29 Sep 2008)
%%abc-creator hum2abc beta
%%abcx-conversion-date 2019/02/17 08:01:12
%%abc-edited-by Jesse Rodin
%%abc-edited-by Chris Gage 06-24-2013
%%abcx-initial-encoding-date 2013/08/05/
%%humdrum-veritas 3669517275
%%humdrum-veritas-data 2540221112
%%linebreak <none>
%%barnumbers 0
L: 1/4
M: 4/2
Q: 1/2=120
%%staves [1 2 3 4]
V: 1 clef=treble
V: 2 clef=treble-8
V: 3 clef=treble-8
V: 4 clef=bass
K: C
[V:1] z8 | 
[V:2] f4f4- | 
[V:3] z8 | 
[V:4] F,4F,3G, | 
[V:1] z8 | 
[V:2] f2d2e2f2 | 
[V:3] z8 | 
[V:4] A,2_B,2G,2A,2 | 
[V:1] z8 | 
[V:2] g2e2d4 | 
[V:3] z8 | 
[V:4] _B,2C4B,2 | 
[V:1] z8 | 
[V:2] c2f4e2 | 
[V:3] z8 | 
[V:4] C2A,2G,4 | 
[V:1] c4c4- | 
[V:2] a3gfea2- | 
[V:3] c4c3d | 
[V:4] F,3G,A,4- | 
[V:1] c2A2B2c2 | 
[V:2] agf2e4 | 
[V:3] e2f2g2e2 | 
[V:4] A,4G,2A,2 | 
[V:1] d2B2A4 | 
[V:2] d8 | 
[V:3] f2g4f2 | 
[V:4] D,2G,2D,4 | 
[V:1] G2c4B2 | 
[V:2] z2g2g3f | 
[V:3] g2e2d4 | 
[V:4] E,2C,2G,4 | 
[V:1] e3dcBe2- | 
[V:2] e2a4g2- | 
[V:3] c8 | 
[V:4] C,4z2C2- | 
[V:1] edc2B4 | 
[V:2] gff4e2 | 
[V:3] z4z2B2 | 
[V:4] CB,A,2G,4 | 
[V:1] A8 | 
[V:2] f8 | 
[V:3] c2d2c2f2- | 
[V:4] F,8 | 
[V:1] z2d2d3c | 
[V:2] z8 | 
[V:3] fed4g2- | 
[V:4] z8 | 
[V:1] B2e4d2- | 
[V:2] z8 | 
[V:3] gfedc2B2 | 
[V:4] z8 | 
[V:1] dcc4B2 | 
[V:2] z8 | 
[V:3] c4d4 | 
[V:4] z8 | 
[V:1] c8- | 
[V:2] z2f2f3e | 
[V:3] c8 | 
[V:4] F,4F,3G, | 
[V:1] c8 | 
[V:2] fga4gf | 
[V:3] z8 | 
[V:4] A,B,C4B,2 | 
[V:1] z2c2c3B | 
[V:2] edefg2a2- | 
[V:3] c3defe2- | 
[V:4] C4C2C2- | 
[V:1] cde4dc | 
[V:2] a2g4^f2 | 
[V:3] edcBc4 | 
[V:4] CB,A,G,A,4 | 
[V:1] BABcd2e2- | 
[V:2] g4z4 | 
[V:3] d3ef2g2- | 
[V:4] G,4z4 | 
[V:1] e2d4^c2 | 
[V:2] z8 | 
[V:3] gfede4 | 
[V:4] z4A,4 | 
[V:1] d8 | 
[V:2] z8 | 
[V:3] d8- | 
[V:4] B,2G,4F,E, | 
[V:1] z8 | 
[V:2] a4b2g2- | 
[V:3] d8 | 
[V:4] D,4G,4- | 
[V:1] z8 | 
[V:2] g2fed2g2- | 
[V:3] z2d3cBA | 
[V:4] G,8- | 
[V:1] z4d4 | 
[V:2] gfe2d4 | 
[V:3] G2c4B2 | 
[V:4] G,4G,4 | 
[V:1] e2c3BA2 | 
[V:2] c8- | 
[V:3] c2g4f2 | 
[V:4] C,3D,E,2F,2 | 
[V:1] G2c3BA2 | 
[V:2] c8 | 
[V:3] e2g4f2- | 
[V:4] C,3D,E,2F,2 | 
[V:1] G2AGA4- | 
[V:2] z4c4 | 
[V:3] fee2f4 | 
[V:4] G,4F,3G, | 
[V:1] A4z4 | 
[V:2] c2f4ed | 
[V:3] z8 | 
[V:4] A,2D,3E,F,G, | 
[V:1] z8 | 
[V:2] c3de2d2- | 
[V:3] z8 | 
[V:4] A,2F,2G,4 | 
[V:1] G4A2c2- | 
[V:2] d2g3fed | 
[V:3] z8 | 
[V:4] G,3E,F,2A,2- | 
[V:1] c2BAG3A | 
[V:2] e2d4^c2 | 
[V:3] z8 | 
[V:4] A,G,F,2E,4 | 
[V:1] B2A4d2- | 
[V:2] d8 | 
[V:3] f4f2f2- | 
[V:4] D,8 | 
[V:1] dcBAB2A2- | 
[V:2] z8 | 
[V:3] fedcd2A2 | 
[V:4] z8 | 
[V:1] A2^G2A4- | 
[V:2] z8 | 
[V:3] B4A4- | 
[V:4] z4z2C,2 | 
[V:1] A4z4 | 
[V:2] z2c2d2f2 | 
[V:3] A4z4 | 
[V:4] D,2F,3E,D,C, | 
[V:1] z8 | 
[V:2] fedcdcg2- | 
[V:3] z8 | 
[V:4] D,C,G,3A,_B,2- | 
[V:1] z4z2G2 | 
[V:2] gff4e2 | 
[V:3] z8 | 
[V:4] B,A,G,F,G,4 | 
[V:1] A2c3BAG | 
[V:2] f4z4 | 
[V:3] z2c2d2f2- | 
[V:4] F,4z4 | 
[V:1] AGd3cc2- | 
[V:2] z8 | 
[V:3] fedcB2c2 | 
[V:4] z8 | 
[V:1] c2B2c2A2- | 
[V:2] z8 | 
[V:3] d4c4 | 
[V:4] z4z2F,2- | 
[V:1] A2GFE2c2- | 
[V:2] f4g2fe | 
[V:3] z2c3BAG | 
[V:4] F,2E,D,C,2A,2- | 
[V:1] c2B2A2G2 | 
[V:2] f2g2c2c2 | 
[V:3] A2d4c2- | 
[V:4] A,2G,2F,2E,2 | 
[V:1] F4E2c2- | 
[V:2] defde2f2 | 
[V:3] c2B2c4- | 
[V:4] D,4C,2A,2- | 
[V:1] c2B2A2G2 | 
[V:2] ede2f4- | 
[V:3] c4c4 | 
[V:4] A,2G,2F,2E,2 | 
[V:1] F4_B4- | 
[V:2] f2e2d2c2 | 
[V:3] d6G2 | 
[V:4] D,2C,2_B,,4 | 
[V:1] B2A2G3F | 
[V:2] _B4_e3_e | 
[V:3] G4c4- | 
[V:4] _E,6C,2 | 
[V:1] _E8 | 
[V:2] _e2d2c4 | 
[V:3] c2_B2A2G2 | 
[V:4] C,8- | 
[V:1] _E8- | 
[V:2] c8- | 
[V:3] G8 | 
[V:4] C,8- | 
[V:1] E8 ||  
[V:2] c8 ||  
[V:3] G8 ||  
[V:4] C,8 ||  
[V:1]  [K:C] [K:clef=treble][M:3/1]z12 | 
[V:2]  [K:C] [K:clef=treble-8][M:3/1]f6e2d4 | 
[V:3]  [K:C] [K:clef=treble-8][M:3/1]z12 | 
[V:4]  [K:C] [K:clef=bass][M:3/1]z12 | 
[V:1] z12 | 
[V:2] c4d4B4 | 
[V:3] z12 | 
[V:4] F,6E,2D,4 | 
[V:1] z12 | 
[V:2] A6G2A2B2 | 
[V:3] c6B2A4 | 
[V:4] C,4F,8 | 
[V:1] c6B2A4 | 
[V:2] c4c2d4c2 | 
[V:3] G4A4F4 | 
[V:4] E,4F,8 | 
[V:1] G4A4F4 | 
[V:2] c6B2B4 | 
[V:3] G6E2F4 | 
[V:4] E,4D,8 | 
[V:1] E6D2E2F2 | 
[V:2] c12 | 
[V:3] G4c6B2 | 
[V:4] C,12 | 
[V:1] G4G2A4G2 | 
[V:2] z12 | 
[V:3] B4c8 | 
[V:4] z12 | 
[V:1] G6^F2F4 | 
[V:2] z12 | 
[V:3] B4A8 | 
[V:4] z12 | 
[V:1] G12 | 
[V:2] d4d4e4 | 
[V:3] G12 | 
[V:4] z12 | 
[V:1] z12 | 
[V:2] f6e2c4 | 
[V:3] z12 | 
[V:4] D,4D,4E,4 | 
[V:1] z12 | 
[V:2] d2e2f2g2e4 | 
[V:3] z12 | 
[V:4] F,6E,2C,4 | 
[V:1] A4A4B4 | 
[V:2] f2g2a2f2g4 | 
[V:3] z12 | 
[V:4] D,2E,2F,2D,2G,4 | 
[V:1] c6B2G4 | 
[V:2] f6d2e4 | 
[V:3] A4A4B4 | 
[V:4] A,6F,2G,4 | 
[V:1] A2B2c2d2B4 | 
[V:2] f8z4 | 
[V:3] c6B2G4 | 
[V:4] F,8z4 | 
[V:1] c2d2e2c2d4 | 
[V:2] z12 | 
[V:3] A2B2c2A2B4 | 
[V:4] z12 | 
[V:1] c6A2B4 | 
[V:2] z12 | 
[V:3] c2d2e2c2d4 | 
[V:4] z4z4G,4 | 
[V:1] c12 | 
[V:2] z4z4g4 | 
[V:3] c12 | 
[V:4] A,6G,2E,4 | 
[V:1] z12 | 
[V:2] a6g2e4 | 
[V:3] z12 | 
[V:4] F,4A,4G,4 | 
[V:1] z12 | 
[V:2] f4a4g4 | 
[V:3] z12 | 
[V:4] F,4z4G,4 | 
[V:1] z12 | 
[V:2] c4z4g4 | 
[V:3] z12 | 
[V:4] A,6G,2E,4 | 
[V:1] z4z4d4 | 
[V:2] a4f4g4 | 
[V:3] z4z4B4 | 
[V:4] F,4A,4G,4 | 
[V:1] e6d2B4 | 
[V:2] e2f2g2a2f4 | 
[V:3] c2d2e2f2d4 | 
[V:4] C,8z4 | 
[V:1] c4e4d4 | 
[V:2] g8g4 | 
[V:3] e6d2B4 | 
[V:4] C,4C,4G,4 | 
[V:1] G4z4d4 | 
[V:2] g6e2f4 | 
[V:3] c4e4d4 | 
[V:4] E,6C,2D,4 | 
[V:1] e6d2B4 | 
[V:2] g12- | 
[V:3] G4z4d4 | 
[V:4] C,2D,2E,2F,2G,4 | 
[V:1] c4e4d4 | 
[V:2] g12 | 
[V:3] e6d2B4 | 
[V:4] C,8G,4 | 
[V:1] c4f8 | 
[V:2] z12 | 
[V:3] c6B2B4 | 
[V:4] E,4D,8 | 
[V:1] e8z4 | 
[V:2] g4g4e4 | 
[V:3] c12 | 
[V:4] C,8z4 | 
[V:1] A4c4B4 | 
[V:2] f6c2d2e2 | 
[V:3] z12 | 
[V:4] F,4A,4G,4 | 
[V:1] A4c4B4 | 
[V:2] f8d4 | 
[V:3] z12 | 
[V:4] F,2G,2A,2F,2G,4 | 
[V:1] A4d4c4 | 
[V:2] a6f2g4 | 
[V:3] d4f4e4 | 
[V:4] D,8z4 | 
[V:1] d6B2c4 | 
[V:2] a8z4 | 
[V:3] d4f4e4 | 
[V:4] z12 | 
[V:1] d8z4 | 
[V:2] a6f2g4 | 
[V:3] d6c2c4 | 
[V:4] D,4F,4E,4 | 
[V:1] A6G2G4 | 
[V:2] f6d2e4 | 
[V:3] d6B2c4 | 
[V:4] D,4F,4E,4 | 
[V:1] F4G6A2 | 
[V:2] f6d2e4 | 
[V:3] d4B8 | 
[V:4] D,4G,8 | 
[V:1] A4F2G2A2B2 | 
[V:2] f6d2e4 | 
[V:3] A8z4 | 
[V:4] F,2G,2A,2B,2C4 | 
[V:1] c6B2G4 | 
[V:2] A4f4e4 | 
[V:3] A4F2G2A2B2 | 
[V:4] F,4A,4G,4 | 
[V:1] A4G4C4 | 
[V:2] f4e2f2g4 | 
[V:3] c6B2G4 | 
[V:4] F,4C,2D,2E,4 | 
[V:1] c6B2G4 | 
[V:2] c2d2e2f2g2e2 | 
[V:3] A4G4E4 | 
[V:4] F,4C,8 | 
[V:1] A4G4C4 | 
[V:2] f4e2f2g4 | 
[V:3] c6B2G4 | 
[V:4] F,4C,2D,2E,4 | 
[V:1] c6B2G4 | 
[V:2] c12- | 
[V:3] A4G4E4 | 
[V:4] F,4C,8 | 
[V:1] A4G6F2 | 
[V:2] c12 | 
[V:3] c6B2G4 | 
[V:4] C,6D,2E,4 | 
[V:1] F8E4 | 
[V:2] c12- | 
[V:3] A4G8 | 
[V:4] F,4C,8 | 
[V:1] F12 |]  
[V:2] c12 |]  
[V:3] F12 |]  
[V:4] F,,12 |]  



